X:16
T:L'espoir de la terre - E203-2
C:J. Akepsimas
M:4/4
L:1/8
K:Cm
[P:Couplet]"Dom"CC DD E2D2|CC DD E4|CC DD E2D2|"Lab"EE FF "Sol"G4|
"Mib"G2 GAB3B|"Lab"c2"Mib"B3A GF|"Dom"E2G2"Sib"F4|"Mib"G2GA B4|
"Lab"c2"Sib"BA "Dom"G4|"Fam"A2GF "Lab"E3G|[M:2/4]"Fam"F2E2|[M:4/4]"Sol4"D4 "Sol"D4|
[P:Refrain]"Mib"E2GA "Sib"B2B2|"Dom"C2EF "Sol"G2G2|"Lab"A2BA "Fa"G2FE|"Sib"F8|
"Mib"E2GA "Sib"B2B2|"Dom"C2EF "Sol"G2G2|"Lab"A2"Mib"G2 "Sib"F2GF|"Mib"E8||
